X:1
T:/home/amarks/Code/aeolian/tmp.oWG3cv0zCn/aeolian-demo-notes.metrics.history
C:AEOLIAN
M:4/4
L:1/8
Q:1/4=120
K:C
%%MIDI gchord c
| "C"
w: ImmediateThinScheduler.java
 [I: MIDI program 73] B,bG,g''bG,eG, |
| "C"b''c''e'B,B,c'cG, |
| "C"c'e'B,eB,cB,g |
| "C"bECBBE,GG |
| "C"E,CEeGCE,C |
| "C"Ec'c''E,CEc''e'' |
| "C"E,CEGGE,bE |
| "C"BcE,EEcE,C |
| "C"EbGCE,CEb' |
| "C"c''E,CEg''e''E,E, |
| "C"E,E, |
